images/telegram.svg

<svg width="30" height="30" viewBox="0 0 30 30" fill="none" xmlns="http://www.w3.org/2000/svg">
<path fill-rule="evenodd" clip-rule="evenodd" d="M15 0C6.71625 0 0 6.71625 0 15C0 23.2838 6.71625 30 15 30C23.2838 30 30 23.2838 30 15C30 6.71625 23.2838 0 15 0ZM21.9525 10.2013C21.7275 12.5725 20.75 18.3288 20.2537 20.985C20.0437 22.11 19.6287 22.4862 19.2288 22.5225C18.3575 22.6025 17.6963 21.9462 16.8525 21.3937C15.5325 20.5287 14.7863 19.99 13.505 19.145C12.0238 18.1688 12.9838 17.6325 13.8275 16.7563C14.0487 16.5262 17.8863 13.035 17.9613 12.7188C17.97 12.6788 17.98 12.5312 17.8913 12.4538C17.8025 12.3763 17.6737 12.4025 17.5812 12.4237C17.4487 12.4538 15.34 13.8475 11.2537 16.605C10.655 17.0163 10.1125 17.2163 9.62625 17.2063C9.09125 17.195 8.06125 16.9037 7.295 16.6537C6.35625 16.3487 5.60875 16.1863 5.67375 15.6687C5.7075 15.3987 6.07875 15.1225 6.78875 14.84C11.1613 12.935 14.0775 11.6788 15.5363 11.0713C19.7025 9.33875 20.5675 9.0375 21.1325 9.0275C21.84 9.0175 22.01 9.60125 21.9525 10.2013Z" fill="white"/>
</svg>

<svg width="30" height="30" fill="none" xmlns="http://www.w3.org/2000/svg"><path fill-rule="evenodd" clip-rule="evenodd" d="M15 0C6.716 0 0 6.716 0 15c0 8.284 6.716 15 15 15 8.284 0 15-6.716 15-15 0-8.284-6.716-15-15-15Zm6.953 10.201c-.226 2.371-1.203 8.128-1.7 10.784-.21 1.125-.624 1.501-1.024 1.538-.871.08-1.533-.577-2.377-1.13-1.32-.864-2.066-1.403-3.347-2.248-1.481-.976-.521-1.512.322-2.389.222-.23 4.06-3.721 4.134-4.037.009-.04.019-.188-.07-.265-.088-.078-.217-.052-.31-.03-.132.03-2.241 1.424-6.327 4.181-.599.411-1.141.611-1.628.601-.535-.011-1.565-.302-2.331-.552-.939-.305-1.686-.468-1.621-.985.033-.27.405-.546 1.115-.829 4.372-1.905 7.289-3.161 8.747-3.769 4.167-1.732 5.031-2.034 5.597-2.043.707-.01.877.573.82 1.173Z" fill="#fff"/></svg>
